Papirus-Dark/16x16/actions/media-random-albums-amarok.svg

<?xml version="1.0" encoding="UTF-8" standalone="no"?>
<svg xmlns="http://www.w3.org/2000/svg" width="16" height="16" viewBox="0 0 16 16">
 <defs>
  <style type="text/css" id="current-color-scheme">
   .ColorScheme-Text { color:#d3dae3; }
  </style>
 </defs>
 <path style="fill:currentColor;opacity:1" class="ColorScheme-Text" d="M 11 1 L 11 3 L 9.3828125 3 L 5.3828125 11 L 1 11 L 1 13 L 6.6191406 13 L 10.619141 5 L 11 5 L 11 7 L 15 4 L 11 1 z M 1 3 L 1 5 L 5.3828125 5 L 6.3242188 6.8828125 L 7.4414062 4.6464844 L 6.6191406 3 L 1 3 z M 2 6 L 2 10 L 3 10 L 3 9 L 4 9 L 4 10 L 5 10 L 5 6 L 2 6 z M 3 7 L 4 7 L 4 8 L 3 8 L 3 7 z M 11 9 L 11 11 L 10.619141 11 L 9.6777344 9.1171875 L 8.5585938 11.353516 L 9.3828125 13 L 11 13 L 11 15 L 15 12 L 11 9 z"/>
</svg>

<?xml version="1.0" encoding="UTF-8" standalone="no"?>
<!--Created with Inkscape (http://www.inkscape.org/)-->
<svg id="svg7384" xmlns:rdf="http://www.w3.org/1999/02/22-rdf-syntax-ns#" style="enable-background:new" xmlns="http://www.w3.org/2000/svg" height="16" width="16" version="1.1" xmlns:cc="http://creativecommons.org/ns#" xmlns:dc="http://purl.org/dc/elements/1.1/">
 <metadata id="metadata90">
  <rdf:RDF>
   <cc:Work rdf:about="">
    <dc:format>image/svg+xml</dc:format>
    <dc:type rdf:resource="http://purl.org/dc/dcmitype/StillImage"/>
   </cc:Work>
  </rdf:RDF>
 </metadata>
 <g id="layer12" transform="translate(-265 119)">
  <path id="path2194-83" opacity="1" fill="#d3dae3" style="fill:#d3dae3;enable-background:accumulate" transform="translate(265 -119)" d="m11 1v2h-1.6172l-4 8h-4.3828v2h5.6191l3.9999-8h0.381v2l4-3-4-3zm-10 2v2h4.3828l0.9414 1.8828 1.1172-2.2363-0.8223-1.6465h-5.6191zm1 3v4h1v-1h1v1h1v-4h-3zm1 1h1v1h-1v-1zm8 2v2h-0.381l-0.9413-1.8828-1.1191 2.2368 0.8242 1.646h1.6172v2l4-3-4-3z"/>
 </g>
</svg>
